dist/svg/filter-add.svg

<!-- Generated by Trend Micro Style Portal -->
<svg version="1.1" xmlns="http://www.w3.org/2000/svg" width="16" height="16" viewBox="0 0 16 16">
  <title>filter-add</title>
  <path fill="rgb(34,34,34)" d="M13.867 1.067v-1.067h-13.867v1.067zM5.333 8.533l-5.333-5.333v-1.067h13.867v1.067l-3.2 3.2h-1.067v1.067l-1.067 1.067v1.067h-2.133v4.267h2.133l-3.2 2.133zM12.8 10.667v-3.2h-2.133v3.2h-3.2v2.133h3.2v3.2h2.133v-3.2h3.2v-2.133z"></path>
</svg>

<svg width="16" height="16" viewBox="0 0 16 16" fill="rgb(34, 34, 34)" xmlns="http://www.w3.org/2000/svg"><title>filter-add</title><path d="M13.867 1.067V0H0V1.067H13.867ZM5.333 8.533L0 3.2V2.133H13.867V3.2L10.667 6.4H9.6V7.467L8.533 8.534V9.601H6.4V13.868H8.533L5.333 16.001V8.533ZM12.8 10.667V7.467H10.667V10.667H7.467V12.8H10.667V16H12.8V12.8H16V10.667H12.8Z" fill="rgb(34, 34, 34)" fill-opacity="1.00"/></svg>
